img/icons/mono/about-business.svg

<svg width="33" height="32" viewBox="0 0 33 32" fill="none" xmlns="http://www.w3.org/2000/svg">
<path d="M17.708 6.6665H21.708C22.0616 6.6665 22.4008 6.80698 22.6508 7.05703C22.9009 7.30708 23.0413 7.64622 23.0413 7.99984V13.3332" stroke="#231F20" stroke-width="2" stroke-linecap="round" stroke-linejoin="round"/>
<path d="M9.70833 6.6665H5.70833C5.35471 6.6665 5.01557 6.80698 4.76552 7.05703C4.51548 7.30708 4.375 7.64622 4.375 7.99984V26.6665C4.375 27.0201 4.51548 27.3593 4.76552 27.6093C5.01557 27.8594 5.35471 27.9998 5.70833 27.9998H21.7083C22.062 27.9998 22.4011 27.8594 22.6511 27.6093C22.9012 27.3593 23.0417 27.0201 23.0417 26.6665V21.3332" stroke="#231F20" stroke-width="2" stroke-linecap="round" stroke-linejoin="round"/>
<path d="M17.708 5.33333C17.708 4.97971 17.5675 4.64057 17.3175 4.39052C17.0674 4.14048 16.7283 4 16.3747 4H11.0413C10.6877 4 10.3486 4.14048 10.0985 4.39052C9.84848 4.64057 9.70801 4.97971 9.70801 5.33333V9.33333H17.708V5.33333ZM27.988 14.2533L26.1213 12.3867C25.8721 12.1424 25.537 12.0055 25.188 12.0055C24.839 12.0055 24.5039 12.1424 24.2547 12.3867L17.708 18.9333V22.6667H21.4413L27.988 16.12C28.2323 15.8708 28.3692 15.5357 28.3692 15.1867C28.3692 14.8377 28.2323 14.5026 27.988 14.2533V14.2533Z" stroke="#231F20" stroke-width="2" stroke-linecap="round" stroke-linejoin="round"/>
</svg>

<svg width="33" height="32" fill="none" xmlns="http://www.w3.org/2000/svg"><path d="M17.708 6.667h4A1.333 1.333 0 0123.041 8v5.333M9.708 6.667h-4A1.333 1.333 0 004.375 8v18.666A1.333 1.333 0 005.708 28h16a1.333 1.333 0 001.334-1.334v-5.333" stroke="#231F20" stroke-width="2" stroke-linecap="round" stroke-linejoin="round"/><path d="M17.708 5.333A1.334 1.334 0 0016.375 4H11.04a1.333 1.333 0 00-1.333 1.333v4h8v-4zm10.28 8.92l-1.867-1.866a1.333 1.333 0 00-1.866 0l-6.547 6.546v3.734h3.733l6.547-6.547a1.333 1.333 0 000-1.867v0z" stroke="#231F20" stroke-width="2" stroke-linecap="round" stroke-linejoin="round"/></svg>
